static/logos/ebay-wordmark-color.svg

<svg width="50" height="21" viewBox="0 0 50 21" fill="none" xmlns="http://www.w3.org/2000/svg">
<g clip-path="url(#clip0_1_2857)">
<path d="M6.4767 4.38477C2.95241 4.38477 0.015625 5.87995 0.015625 10.3908C0.015625 13.9645 1.9904 16.2149 6.5677 16.2149C11.9554 16.2149 12.3008 12.6659 12.3008 12.6659H9.69018C9.69018 12.6659 9.13044 14.5769 6.40845 14.5769C4.19146 14.5769 2.59692 13.0792 2.59692 10.9801H12.5738V9.66283C12.5738 7.5861 11.2554 4.38477 6.4767 4.38477V4.38477ZM6.3857 6.06829C8.49604 6.06829 9.93474 7.36113 9.93474 9.29882H2.65466C2.65466 7.24172 4.53252 6.06829 6.3857 6.06829V6.06829Z" fill="#E53238"/>
<path d="M12.5721 0.0167236V13.9496C12.5721 14.7404 12.5156 15.8509 12.5156 15.8509H15.0056C15.0056 15.8509 15.095 15.0533 15.095 14.3245C15.095 14.3245 16.3252 16.249 19.6702 16.249C23.1926 16.249 25.5852 13.8035 25.5852 10.2998C25.5852 7.04041 23.3875 4.4189 19.6758 4.4189C16.2001 4.4189 15.1201 6.2958 15.1201 6.2958V0.0167236H12.5721ZM19.0331 6.14223C21.4251 6.14223 22.9462 7.91751 22.9462 10.2998C22.9462 12.8545 21.1894 14.5257 19.0502 14.5257C16.4972 14.5257 15.1201 12.5324 15.1201 10.3226C15.1201 8.26353 16.3558 6.14223 19.0331 6.14223Z" fill="#0064D2"/>
<path d="M31.7736 4.38477C26.4716 4.38477 26.1315 7.28789 26.1315 7.7518H28.7705C28.7705 7.7518 28.9089 6.05691 31.5916 6.05691C33.3348 6.05691 34.6856 6.85481 34.6856 8.38881V8.93482H31.5916C27.484 8.93482 25.3125 10.1364 25.3125 12.5749C25.3125 14.9746 27.3189 16.2803 30.0303 16.2803C33.7256 16.2803 34.916 14.2385 34.916 14.2385C34.916 15.0506 34.9786 15.8509 34.9786 15.8509H37.3246C37.3246 15.8509 37.2336 14.8589 37.2336 14.2243V8.7386C37.2336 5.14173 34.3324 4.38477 31.7736 4.38477V4.38477ZM34.6856 10.5728V11.3008C34.6856 12.2504 34.0997 14.611 30.6503 14.611C28.7614 14.611 27.9515 13.6683 27.9515 12.5749C27.9515 10.5856 30.6788 10.5728 34.6856 10.5728V10.5728Z" fill="#F5AF02"/>
<path d="M35.8125 4.84021H38.7814L43.0422 13.3764L47.2933 4.84021H49.9827L42.2394 20.0374H39.4184L41.6528 15.801L35.8125 4.84021Z" fill="#86B817"/>
</g>
<defs>
<clipPath id="clip0_1_2857">
<rect width="50" height="20.054" fill="white"/>
</clipPath>
</defs>
</svg>

<svg xmlns="http://www.w3.org/2000/svg" width="152.381" height="64" fill="none" viewBox="0 0 50 21"><g clip-path="url(#a)"><path fill="#E53238" d="M6.477 4.385C2.952 4.385.016 5.88.016 10.39c0 3.573 1.974 5.824 6.552 5.824 5.387 0 5.733-3.55 5.733-3.55H9.69s-.56 1.912-3.283 1.912c-2.217 0-3.811-1.498-3.811-3.597h9.977V9.663c0-2.077-1.319-5.278-6.097-5.278Zm-.091 1.683c2.11 0 3.549 1.293 3.549 3.23h-7.28c0-2.056 1.878-3.23 3.73-3.23Z"/><path fill="#0064D2" d="M12.572.017V13.95c0 .79-.056 1.9-.056 1.9h2.49s.089-.797.089-1.525c0 0 1.23 1.924 4.575 1.924 3.523 0 5.915-2.445 5.915-5.95 0-3.259-2.198-5.88-5.91-5.88-3.475 0-4.555 1.877-4.555 1.877V.016h-2.548Zm6.461 6.125c2.392 0 3.913 1.776 3.913 4.158 0 2.554-1.757 4.226-3.896 4.226-2.553 0-3.93-1.994-3.93-4.203 0-2.06 1.236-4.18 3.913-4.18Z"/><path fill="#F5AF02" d="M31.774 4.385c-5.302 0-5.643 2.903-5.643 3.367h2.64s.138-1.695 2.82-1.695c1.744 0 3.095.798 3.095 2.332v.546h-3.094c-4.108 0-6.28 1.201-6.28 3.64 0 2.4 2.007 3.705 4.718 3.705 3.696 0 4.886-2.042 4.886-2.042 0 .813.063 1.613.063 1.613h2.346s-.091-.992-.091-1.627V8.74c0-3.597-2.902-4.354-5.46-4.354Zm2.912 6.188v.728c0 .95-.586 3.31-4.036 3.31-1.889 0-2.698-.943-2.698-2.036 0-1.99 2.727-2.002 6.734-2.002Z"/><path fill="#86B817" d="M35.813 4.84h2.968l4.261 8.536 4.251-8.536h2.69l-7.744 15.197h-2.82l2.234-4.236-5.84-10.96Z"/></g><defs><clipPath id="a"><path fill="#fff" d="M0 0h50v20.054H0z"/></clipPath></defs></svg>
